X:1
T:Fathom The Bowl
M:3/4
L:1/4
K:G
 z2D/2-G/2| G3/2 F/2G/2-F/2| G D B,/2A,/2| G,B,/2-D/2D/2-G/2| G2G/2-A/2|\
 A A F| DD/2-A/2 A| GF/2-E/2 E| D2 A/2A/2| D D D|E/2-F/2 G E|E/2-A/2 A G|\
G/2-F/2 F2-| F zD/2-G/2| G3/2 A/2 B| A D D| C A, D| G,2 D| D B,D/2-G/2|\
 G2 D| G A B| A3-| A z D| G3/2 A/2 B| A D D| C A, D| G,3-| G, z2|
